package/converter/svg/duotone/toggle-off.svg

<svg xmlns="http://www.w3.org/2000/svg" viewBox="0 0 576 512"><!-- Font Awesome Pro 6.0.0-alpha2 by @fontawesome - https://fontawesome.com License - https://fontawesome.com/license (Commercial License) --><defs><style>.fa-secondary{opacity:.4}</style></defs><path d="M384 64H192C85.999 64 0 150 0 256C0 362 85.999 448 192 448H384C490 448 576 362 576 256C576 150 490 64 384 64ZM384 384H192C121.42 384 64 326.58 64 256S121.42 128 192 128H384C454.58 128 512 185.42 512 256S454.58 384 384 384Z" class="fa-secondary"/><path d="M288 256C288 309.062 245.062 352 192 352S96 309.062 96 256S138.938 160 192 160S288 202.938 288 256Z" class="fa-primary"/></svg>

<svg xmlns="http://www.w3.org/2000/svg" viewBox="0 0 576 512"><!--! Font Awesome Pro 6.6.0 by @fontawesome - https://fontawesome.com License - https://fontawesome.com/license (Commercial License) Copyright 2024 Fonticons, Inc. --><defs><style>.fa-secondary{opacity:.4}</style></defs><path class="fa-secondary" d="M0 256C0 362 86 448 192 448l192 0c106 0 192-86 192-192s-86-192-192-192L192 64C86 64 0 150 0 256zm64 0c0-70.7 57.3-128 128-128l192 0c70.7 0 128 57.3 128 128s-57.3 128-128 128l-192 0c-70.7 0-128-57.3-128-128z"/><path class="fa-primary" d="M96 256a96 96 0 1 0 192 0A96 96 0 1 0 96 256z"/></svg>
